X: 28219
T: Mrs. Duffy's
R: reel
M: 4/4
K: Dmajor
|:FG|A2dB AFEF|DEFD B,DA,B,|D2FA d2ef|gfed BeeB|
A2dB AFEF|DEFD B,DA,B,|D2FA d2ec|AFEF D2:|
|:de|fadf a2gf|eace g2de|fadf a2gf|gfed Beeg|
fadf a2gf|eace g2de|gbef gece|Addc d2:|

